X:1
T:Title
%%score { ( 1 4 ) | ( 2 3 ) }
L:1/8
Q:1/4=92
M:4/4
K:A
V:1 treble nm="Grand Piano"
V:4 treble 
V:2 bass 
V:3 bass 
V:1
 [CE]>[DF] [CE][Ec] [DB]<[CA] [A,C][B,D] | [CE]2 [DF]2 [CE]2 [EA][EA] | %2
w: Chas.~H.~Gabriel,~Jr. * * * * * * *||
 [EG]2 [Ge]2 [Ge][Gd][Gc][GB] | [EA]2 [Ge]2 [CA]4 | %4
w: ||
 [CE]>[DF] [CE][Ec] [DB]<[CA][K:bass] [E,A,C][E,B,D] | [A,CE]2 [CEF]2 [B,EG]2 [^DG][B,DF] | %6
w: ||
 [B,EB]2 [^DAB]2 [EGB][EGe][EB^d][EAc] | [EGB]2 .[B,^D]2 [G,B,E]4 | %8
w: ||
 [Gd]>[Gd] [Gd][Gc] [Gc][GB][DF][DG] | [CB][CA][EG][DF] [CE]4 | A>A GA [^Dc][DB][DA][DF] | %11
w: |||
 z4 B2 z2 | e2 z2 z4 | [Fc][FB][F^A][FB] [=Af]4 | [Af][Ae][GB][Ac] [Ge][Gd][DF][DG] | %15
w: ||||
 [Gc]2 [GB]2 [CEA]4 |] %16
w: |
V:2
 [A,,A,]>[A,,A,] [A,,A,][A,,A,] [A,,A,]<[A,,A,] [A,,E,][A,,E,] | %1
 [A,,A,]2 [A,,A,]2 [A,,A,]2 [C,A,][C,A,] | [E,B,]2 [E,B,]2 [E,B,][E,E][E,E][E,D] | %3
 [A,C]2 [E,D]2 A,,4 | [A,,A,]>[A,,A,] [A,,A,][A,,A,] [A,,A,]<[A,,A,] A,,A,, | %5
 A,,2 ^A,,2 B,,2 B,A, | G,2 F,2 E,E,A,,A,, | B,,2 z A, E,4 | %8
 [E,B,]>[E,B,] [E,B,][E,E] [E,E][E,D][E,A,][E,B,] | [A,,A,][A,,A,][A,,A,][A,,A,] [A,,A,]4 | %10
 [F,CF]>[F,CF] [F,CF][F,CF] [B,,A,][B,,F,][B,,B,][B,,B,] | %11
 [E,B,E][E,B,E][F,B,^D][F,B,D] [G,B,E][F,A,][E,G,][D,G,] | %12
 [C,A,]3 [B,,G,] [A,,A,][A,,E,][B,,E,][C,A,] | [D,A,][D,A,][D,D][D,D] [^D,=C]4 | %14
 [E,C][E,C][E,D][E,C] [E,B,][E,B,][E,A,][E,B,] | [E,A,E]2 [E,DE]2 [A,,A,]4 |] %16
V:3
 x8 | x8 | x8 | x8 | x8 | x8 | x8 | z2 B,,2 z4 | x8 | x8 | x8 | x8 | x8 | x8 | x8 | x8 |] %16
V:4
 x8 | x8 | x8 | x8 | x6[K:bass] x2 | x8 | x8 | x8 | x8 | x8 | x8 | GGAA z ^DEE | %12
 E->[E-e] [Ee][Ed] [Ec][CA][DG][EA] | x8 | x8 | x8 |] %16

